X:1
T:Pilgrims, 11.10.11.10 refrain
T:Pilgrims, 11.10.11.10 refrain
T:Henry Thomas Smart, 1868
T:Public Domain Courtesy of the Cyber Hymnal™
C:Henry Thomas Smart, 1868
Z:Public Domain
Z:Courtesy of the Cyber Hymnal™
%%score ( 1 2 ) ( 3 4 )
L:1/8
M:4/4
K:E
V:1 treble 
V:2 treble 
V:3 bass 
V:4 bass 
V:1
 [EG]4 [FB]2 [FA]2 | G6 z2 F2 | E2 [DF]2 [EG]2 [FA]2 | [EG]4 [DF]4 | [EB]4 [Ee]2 [Ed]2 | %5
 [Ec]6 [EB]2 [DA]2 F2 [EG]2 [FA]2 | [DF]8 | [EG]4 [EB]2 [FA]2 | G6 z2 F2 x2 | %9
 E2 [DF]2 [EG]2 [E^A]2 | [Fc]4 [FB]4 | [Ee]4 [Fd]2 [Fc]2 | [FB]2 F2 [EG]2 [Gc]2 | B4 z2 x6 | %14
 [DB]8 | [DF]4 [DG]2 [DA]2 | [EB]4 E4 | [Ec]4 [DB]2 [DA]2 | [EG]8 | [Ee]4 [Fd]2 [Fc]2 | %20
 [GB]2 [B,G]2 [CE]2 [FA]2 | [EG]2 [EG]2 [DA]2 [DF]2 | E8 |] %23
V:2
 x8 | (E4 D4) x2 | E2 x6 | x8 | x8 | x16 | x8 | x8 | E4 D4 x4 | E2 x6 | x8 | x8 | x2 F2 x4 | %13
 F6 ^A4 E2 | x8 | x8 | x4 E4 | x8 | x8 | x8 | x8 | x8 | E8 |] %23
V:3
 [E,B,]4 [D,B,]2 [D,B,]2 | B,6 z2 A,2 | [C,G,]2 [C,G,]2 [C,C]2 [A,,C]2 | [B,,B,]4 [B,,B,]4 | %4
 [G,B,]4 [E,G,]2 [G,B,]2 | A,6 [G,B,]2 [F,B,]2 [D,B,]2 [E,B,]2 [A,,C]2 | [B,,B,]8 | %7
 [E,B,]4 [G,,B,]2 [A,,C]2 | B,4 z2 x6 | [C,G,]2 [C,G,]2 [C,C]2 [C,C]2 | [D,F,]4 [D,B,]4 | %11
 [G,B,]4 [F,B,]2 [E,^A,]2 | [D,B,]2 [D,B,]2 [E,B,]2 [C,E]2 | [F,D]4 [F,C]4 x4 | [B,,B,]8 | %15
 [A,B,]4 [A,B,]2 [A,B,]2 | [G,B,]4 [G,,B,]4 | (A,2 G,2) [B,,F,]2 [B,,F,]2 | [C,E,]8 | %19
 (A,2 C2) [D,B,]2 [D,A,]2 | [E,G,]4 A,2 [F,C]2 | B,2 B,2 [B,,F,]2 [B,,A,]2 | [E,G,]8 |] %23
V:4
 x8 | (E,4 B,,4) x2 | x8 | x8 | x8 | A,6 x10 | x8 | x8 | B,,6 A,4 ^B,,2 | x8 | x8 | x8 | x8 | x12 | %14
 x8 | x8 | x8 | A,,4 x4 | x8 | C,4 x4 | x4 A,2 x2 | B,2 B,2 x4 | x8 |] %23

